**kern	**kern	**kern	**kern
*MM76	*MM76	*MM76	*MM76
*k[b-e-a-d-]	*k[b-e-a-d-]	*k[b-e-a-d-]	*k[b-e-a-d-]
*M4/4	*M4/4	*M4/4	*M4/4
*tb64	*tb64	*tb64	*tb64
=1	=1	=1	=1
1r	1r	1r	2cc
.	.	.	2dd-
=2	=2	=2	=2
1r	1r	1r	2ee
.	.	.	4ff
.	.	.	4dd-
=3	=3	=3	=3
1r	1r	1r	4cc
.	.	.	4b-
.	.	.	4a-
.	.	.	4g
=4	=4	=4	=4
1r	1r	2f	4f
.	.	.	2cc
.	.	2a-	.
.	.	.	[4ff
=5	=5	=5	=5
1r	1r	2b	8ff]
.	.	.	8dd
.	.	.	8gg
.	.	.	8ff
.	.	4cc	4ee-
.	.	4a-	4ff
=6	=6	=6	=6
1r	1r	4g	4b
.	.	4f	4dd
.	.	4e-	4g
.	.	4d	4b
=7	=7	=7	=7
1r	1r	4e-	4cc
.	.	4c	2b-
.	.	[2f	.
.	.	.	8a-
.	.	.	8g
=8	=8	=8	=8
1r	2c	4f]	4g
.	.	4e	2cc
.	2d-	2f	.
.	.	.	[4b-
=9	=9	=9	=9
1r	2e	2g	4b-]
.	.	.	4gg
.	4f	4a-	4cc
.	4d-	4f	4b
=10	=10	=10	=10
1r	4c	4e	2.cc
.	4B-	8f	.
.	.	8g	.
.	4A-	4c	.
.	4G	4e	[4b-
=11	=11	=11	=11
1r	4F	[1f	2b-]
.	4G	.	.
.	4A-	.	2a-
.	4B-	.	.
=12	=12	=12	=12
1r	4c	2f]	4g
.	4G	.	8cc
.	.	.	8dd-
.	[2c	2e	4cc
.	.	.	4b-
=13	=13	=13	=13
2F	4c]	2f	2a-
.	4c	.	.
2A-	[2f	2r	4r
.	.	.	4cc
=14	=14	=14	=14
2B	4f]	2r	4dd
.	4d	.	2gg
4c	4e-	4r	.
4A-	4f	4cc	[4ff
=15	=15	=15	=15
4G	4d	2b	4ff]
4F	4G	.	8ee-
.	.	.	8dd
4E-	4A	4cc	4gg
4D	4B	4dd	[4ff
=16	=16	=16	=16
2.C	4c	2.g	4ff]
.	4G	.	8ee-
.	.	.	8dd
.	[2c	.	[2ee-
4E-	.	4g	.
=17	=17	=17	=17
2.F	4c]	2.a-	4ee-]
.	4A-	.	8dd-
.	.	.	8cc
.	4f	.	[2dd-
4G	[4e-	[4b-	.
=18	=18	=18	=18
4A-	2.e-]	4b-]	4dd-]
4E-	.	8a-	8cc
.	.	8g	8b-
2A-	.	4a-	2cc
.	4d	4f	.
=19	=19	=19	=19
2E-	4e-	1g	2.b-
.	4d-	.	.
2E	[2c	.	.
.	.	.	[4gg
=20	=20	=20	=20
4F	1c_	1a-	4gg]
4C	.	.	8ff
.	.	.	8ee
4A-	.	.	[2ff
4F	.	.	.
=21	=21	=21	=21
4c	4c]	2g	4ff]
4B-	4d-	.	4ee
4A-	4c	4a-	4ff
4G	4B-	[4b-	4gg
=22	=22	=22	=22
2F	2c	4b-]	2cc
.	.	8a-	.
.	.	8g	.
2r	2B-	4f	2dd-
.	.	4b-	.
=23	=23	=23	=23
1r	2c	4a-	2ee
.	.	4g	.
.	4d-	4f	4ff
.	4B-	4g	4dd-
=24	=24	=24	=24
1r	2f	4a-	4cc
.	.	4g	4b-
.	2c	4f	4a-
.	.	4e	4g
=25	=25	=25	=25
1r	2F	4f	4a-
.	.	4a-	4cc
.	2B-	4b-	4dd-
.	.	4a-	4dd
=26	=26	=26	=26
1r	4e-	4g	4ee-
.	4B-	4f	4dd
.	4e-	4g	4ee-
.	4f	4a	4cc
=27	=27	=27	=27
1r	4B-	[1b-	4dd-
.	4c	.	4ee-
.	4d-	.	4ff
.	4e-	.	8ee-
.	.	.	8dd-
=28	=28	=28	=28
1r	4f	4b-]	2.cc
.	4c	8a-	.
.	.	8g	.
.	4f	[2a-	.
.	4F	.	8dd-
.	.	.	8cc
=29	=29	=29	=29
1r	4G	4a-]	2.b-
.	4B-	8g	.
.	.	8f	.
.	4c	2e	.
.	4C	.	8cc
.	.	.	8b-
=30	=30	=30	=30
1r	2F	2f	4a-
.	.	.	4cc
.	2A-	[2f	4r
.	.	.	4ff
=31	=31	=31	=31
1r	2B	2f]	4dd
.	.	.	4gg
.	4c	4e-	4g
.	4A-	[4f	4cc
=32	=32	=32	=32
1r	4G	4f]	1b
.	4F	8e-	.
.	.	8d	.
.	4E-	4g	.
.	4D	4f	.
=33	=33	=33	=33
2C	4C	2e	2b-
.	4G	.	.
2D-	4F	2f	2a-
.	4d-	.	.
=34	=34	=34	=34
2E	4G	2.c	2g
.	4B-	.	.
4F	4A-	.	2f
4D-	4F	4B	.
=35	=35	=35	=35
4C	4G	4c	4e
4BB-	4E	4d-	4g
4AA-	4F	4c	4cc
4GG	4G	4e	4b-
=36	=36	=36	=36
4FF	2.C	4f	4a-
4GG	.	4e	4b-
2AA	.	[2f	[2cc
.	4E-	.	.
=37	=37	=37	=37
4BB-	4D-	1f_	4cc]
4C	4E-	.	8b-
.	.	.	8a
4D-	4F	.	[2b-
4BB-	4D-	.	.
=38	=38	=38	=38
2FF	2C	4f]	8b-]
.	.	.	8a
.	.	2e-	8cc
.	.	.	[8g-
2r	2A	.	8g-]
.	.	.	8f
.	.	4c	[4ee-
=39	=39	=39	=39
1r	2B-	2B-	8ee-]
.	.	.	8dd
.	.	.	8ff
.	.	.	[8cc-
.	2D	2F	8cc-]
.	.	.	8b-
.	.	.	[4aa-
=40	=40	=40	=40
1r	2E-	2E-	8aa-]
.	.	.	8gg
.	.	.	8bb-
.	.	.	8aa-
.	2G	2B-	8gg
.	.	.	8ff
.	.	.	8ee-
.	.	.	8dd-
=41	=41	=41	=41
1r	2A-	2e-	8cc
.	.	.	8ee
.	.	.	8ff
.	.	.	8cc
.	2G	2B-	8b-
.	.	.	8ee
.	.	.	8ff
.	.	.	8b-
=42	=42	=42	=42
1r	2F	2c	8a-
.	.	.	8ee
.	.	.	8ff
.	.	.	8a-
.	2D-	2B	8g
.	.	.	8ee
.	.	.	8ff
.	.	.	8f
=43	=43	=43	=43
1r	[1C	4c	8a-
.	.	.	8f
.	.	4E	8g
.	.	.	8b-
.	.	4F	8a-
.	.	.	8g
.	.	4A-	8f
.	.	.	8cc
=44	=44	=44	=44
1r	1C_	4G	8b-
.	.	.	8g
.	.	4F	8a-
.	.	.	8cc
.	.	4G	8b-
.	.	.	8a-
.	.	4B-	8g
.	.	.	8dd-
=45	=45	=45	=45
1r	1C_	4A-	8cc
.	.	.	8a-
.	.	4G	8b-
.	.	.	8dd-
.	.	4A-	8cc
.	.	.	8b-
.	.	4B	8a-
.	.	.	8ff
=46	=46	=46	=46
1r	4C]	4c	8ee
.	.	.	8ff
.	4B-	4e	8gg
.	.	.	8dd-
.	4A-	4f	8cc
.	.	.	8b-
.	4c	4e	8a-
.	.	.	8g
=47	=47	=47	=47
1r	2.A-	2f	4a-
.	.	.	4cc
.	.	2a-	[2ff
.	4F	.	.
=48	=48	=48	=48
1r	2G	2b	4ff]
.	.	.	4dd
.	2c	4cc	4ee-
.	.	4a-	4cc
=49	=49	=49	=49
1r	4B-	4g	4g
.	4A-	4f	2cc
.	2G	4e-	.
.	.	4d	4b
=50	=50	=50	=50
1r	2.A-	4c	2cc
.	.	4e	.
.	.	2f	2dd-
.	8G	.	.
.	8F	.	.
=51	=51	=51	=51
1r	2G	4B-	2ee
.	.	4d-	.
.	4A-	4c	4ff
.	4B-	[4f	4dd-
=52	=52	=52	=52
1r	2c	2f]	4cc
.	.	.	4b-
.	2C	2e	4a-
.	.	.	4g
=53	=53	=53	=53
1r	4D-	4f	4f
.	4C	4e-	4a
.	4BB-	4d-	4b-
.	4F	4c	4a
=54	=54	=54	=54
1r	4BB-	4d-	4b-
.	4A-	4d	4b
.	4G	4e-	4cc
.	4GG	4d	4b
=55	=55	=55	=55
1r	8C	2e-	4cc
.	8G	.	.
.	8c	.	4g
.	8d-	.	.
.	8c	2e	4cc
.	8B-	.	.
.	8A-	.	4b-
.	8G	.	.
=56	=56	=56	=56
1r	8F	4f	2a-
.	8C	.	.
.	8F	4c	.
.	8G-	.	.
.	8F	4f	2a
.	8E-	.	.
.	8D-	4e-	.
.	8C	.	.
=57	=57	=57	=57
1r	8BB-	1d	4b-
.	8F	.	.
.	8B-	.	4f
.	8c	.	.
.	8B-	.	4b-
.	8A-	.	.
.	8G	.	4a-
.	8F	.	.
=58	=58	=58	=58
1r	8E-	4e-	[1g
.	8BB-	.	.
.	8E-	4B-	.
.	8F	.	.
.	8E-	4e-	.
.	8D-	.	.
.	8C	4d-	.
.	8BB-	.	.
=59	=59	=59	=59
1r	2AA-	[2c	8g]
.	.	.	8cc
.	.	.	8b-
.	.	.	8cc
.	2AA	8c]	[2f
.	.	8e-	.
.	.	8d	.
.	.	8e-	.
=60	=60	=60	=60
1r	2BB-	[2d	8f]
.	.	.	8dd
.	.	.	8cc
.	.	.	8dd
.	2BB	8d]	[2g
.	.	8f	.
.	.	8e	.
.	.	8f	.
=61	=61	=61	=61
1r	4C	4e	4g]
.	4G	8d	8f
.	.	8c	8e
.	8c	4d	4f
.	8B-	.	.
.	8A-	4e	4g
.	8G	.	.
=62	=62	=62	=62
2FF	4F	2.f	2a-
.	4C	.	.
2AA-	[2F	.	2r
.	.	4c	.
=63	=63	=63	=63
2BB	4F]	2d	2.g
.	4D	.	.
4C	4E-	2c	.
4AA-	4F	.	4cc
=64	=64	=64	=64
4GG	4F	2d	4b
4FF	4B	.	4g
4EE-	4c	4e-	4a
4DD	4d	4f	4b
=65	=65	=65	=65
4CC	2e-	2g	2cc
8C	.	.	.
8D-	.	.	.
4C	4r	4r	4r
[4CC	4c	4e	4b- 4g
=66	=66	=66	=66
4CC]	2c	2f	2a-
8C	.	.	.
8D-	.	.	.
4C	4r	4r	4r
[4CC	4a-	4cc	4ff
=67	=67	=67	=67
4CC]	2g	2cc	2ee
8C	.	.	.
8D-	.	.	.
4C	4r	4r	4r
[4CC	4b-	4cc	4ee 4gg
=68	=68	=68	=68
4CC]	2a-	2cc	2ff
8C	.	.	.
8D-	.	.	.
4C	4r	4r	4r
[4CC	4b	4dd	4ff 4aa-
=69	=69	=69	=69
4CC]	2cc	2ee	2gg
8C	.	.	.
8D-	.	.	.
8C	2r	2r	2r
8BB-	.	.	.
8AA-	.	.	.
8GG	.	.	.
=70	=70	=70	=70
4FF	2f	2a-	2cc
2F	.	.	.
.	2f	2b-	2dd-
[4BB-	.	.	.
=71	=71	=71	=71
4BB-]	2g	2cc	2ee
8AA-	.	.	.
8GG	.	.	.
4AA-	[2f	4cc	4ff
4BB-	.	4b-	4dd-
=72	=72	=72	=72
2C	2f]	4a-	4cc
.	.	4g	4b-
2CC	4c	4f	4a-
.	4B-	4e	4g
=73	=73	=73	=73
2DD-	4A-	2f	2f
.	8B-	.	.
.	8A-	.	.
4r	4B-	4r	4r
4DD	4c-	4f	4a-
=74	=74	=74	=74
2EE-	4B-	2e-	2g
.	8c	.	.
.	8B-	.	.
4r	4c	4r	4r
4EE	[4d-	[4g	[4b-
=75	=75	=75	=75
8FF	4d-]	4g]	4b-]
8F	.	.	.
8A-	4c	4f	4a-
8F	.	.	.
8C	2r	2r	2r
8F	.	.	.
8AA-	.	.	.
8C	.	.	.
=76	=76	=76	=76
2BB-	1r	1r	8r
.	.	.	8d-
.	.	.	8g-
.	.	.	8b-
2r	.	.	8dd-
.	.	.	8b-
.	.	.	8g-
.	.	.	8b-
=77	=77	=77	=77
2BB-	2D- 2E 2G	2B- 2d-	2e
2r	2r	2r	2r
=78	=78	=78	=78
1r	1r	1r	16BB-
.	.	.	16D-
.	.	.	16E
.	.	.	16G
.	.	.	16B-
.	.	.	16d-
.	.	.	16e
.	.	.	16d-
.	.	.	16B-
.	.	.	16d-
.	.	.	16e
.	.	.	16g
.	.	.	16b-
.	.	.	16dd-
.	.	.	16ee
.	.	.	16dd-
=79	=79	=79	=79
1r	1r	1r	16BB
.	.	.	16D
.	.	.	16F
.	.	.	16A-
.	.	.	16B
.	.	.	16d
.	.	.	16f
.	.	.	16d
.	.	.	16B
.	.	.	16d
.	.	.	16f
.	.	.	16a-
.	.	.	16b
.	.	.	16dd
.	.	.	16ff
.	.	.	16dd
=80	=80	=80	=80
1r	1r	1r	16C
.	.	.	16F
.	.	.	16A-
.	.	.	16c
.	.	.	16c
.	.	.	16f
.	.	.	16a-
.	.	.	16f
.	.	.	16c
.	.	.	16f
.	.	.	16a-
.	.	.	16cc
.	.	.	16cc
.	.	.	16ff
.	.	.	16aa-
.	.	.	16ff
=81	=81	=81	=81
2r	[1C	1g	1b- 1c 1e
2CC	.	.	.
=82	=82	=82	=82
[1FF	1C]	[1f	1ff 1a- 1cc
=83	=83	=83	=83
1FF_	2BB-	1f_	1ff 1b- 1dd-
.	2D-	.	.
=84	=84	=84	=84
1FF]	1F	1f]	1ff 1a- 1cc
==	==	==	==
*-	*-	*-	*-
